wilib/img/svg/pergaminho_top.svg

<svg xmlns="http://www.w3.org/2000/svg" version="1.1" xmlns:xlink="http://www.w3.org/1999/xlink" preserveAspectRatio="none" x="0px" y="0px" width="566px" height="83px" viewBox="0 0 566 83">
<defs>
<g id="Layer0_0_FILL">
<path fill="#FFFFFF" stroke="none" d="
M 152.3 94.95
Q 149.743359375 95.3251953125 147.05 95.4
L 628.4 95.4
Q 640.499609375 95.4 649.9 89.4 640.65390625 94.95 628.95 94.95
L 152.3 94.95
M 178.85 78.6
Q 178.0072265625 79.81015625 177.05 80.95 180.2357421875 77.349609375 182.35 73.3 180.8453125 76.0505859375 178.85 78.6
M 186.35 54.75
L 186.8 54.75
Q 186.746875 38.1478515625 175 26.6 166.209765625 17.885546875 154.95 15.6 153.9625 15.400390625 152.95 15.25
L 147.05 15.25
Q 162.95 15.55 174.55 27.05 186.1375 38.4412109375 186.35 54.75
M 649.9 89.4
Q 653.0046875 87.5115234375 655.8 85 656.506640625 84.3404296875 657.2 83.65 668.8 71.85 668.95 55.35 668.8 38.65 657.2 27.05 645.1 15.25 628.4 15.25
L 152.95 15.25
Q 153.9625 15.400390625 154.95 15.6 166.209765625 17.885546875 175 26.6 186.746875 38.1478515625 186.8 54.75 186.8 54.825 186.8 54.9 186.7833984375 64.9779296875 182.35 73.3 180.2357421875 77.349609375 177.05 80.95 176.078515625 82.105078125 175 83.2 174.7759765625 83.4240234375 174.55 83.65 172.4494140625 85.7205078125 170.15 87.4 162.2861328125 93.4875 152.3 94.95
L 628.95 94.95
Q 640.65390625 94.95 649.9 89.4 Z"/>

<path fill="#C4D3D4" stroke="none" d="
M 182.35 73.3
Q 186.7833984375 64.9779296875 186.8 54.9
L 146.4 54.9
Q 140.6294921875 54.9 135.95 57.9 134.0611328125 59.1388671875 132.35 60.85 127.8548828125 65.3076171875 126.7 71 126.5912109375 71.6796875 126.5 72.35 126.3556640625 73.538671875 126.35 74.75 126.35 74.8501953125 126.35 74.95 126.3681640625 79.041015625 127.85 82.6 129.386328125 86.1369140625 132.35 89.15 138 94.8 146.4 94.8
L 147.5 94.8
Q 163.7 94.35 175 83.05 177.1310546875 80.9189453125 178.85 78.6 180.8453125 76.0505859375 182.35 73.3
M 186.8 54.75
L 186.35 54.75 146.4 54.75
Q 138.3 54.75 132.35 60.7 127.24765625 65.7599609375 126.5 72.35 126.5912109375 71.6796875 126.7 71 127.8548828125 65.3076171875 132.35 60.85 134.0611328125 59.1388671875 135.95 57.9 140.6294921875 54.9 146.4 54.9
L 186.8 54.9
Q 186.8 54.825 186.8 54.75 Z"/>
</g>

<path id="Layer0_0_1_STROKES" stroke="#000000" stroke-width="1" stroke-linejoin="round" stroke-linecap="round" fill="none" d="
M 649.925 89.4
Q 653.0046875 87.5115234375 655.8 85
M 152.95 15.25
Q 153.9625 15.400390625 154.95 15.6 166.209765625 17.885546875 175 26.6 186.746875 38.1478515625 186.8 54.75 186.8 54.825 186.8 54.9 186.7833984375 64.9779296875 182.35 73.3 180.2357421875 77.349609375 177.05 80.975 176.078515625 82.105078125 175 83.2 174.7759765625 83.4240234375 174.55 83.65 172.4494140625 85.7205078125 170.175 87.425
M 152.3 94.95
L 628.95 94.95
Q 640.65390625 94.95 649.925 89.4
M 152.3 94.95
L 147.5 94.95 146.4 94.95
Q 138 94.95 132.35 89.3 129.3283203125 86.228125 127.85 82.6 126.3681640625 79.041015625 126.35 74.95 126.35 74.8501953125 126.35 74.75 126.3556640625 73.538671875 126.5 72.375
M 152.95 15.25
Q 150.2943359375 14.852734375 147.5 14.8
L 146.4 14.8
Q 129.75 14.8 118.1 26.6 116.9109375 27.773828125 115.85 29 111.3177734375 34.1919921875 108.95 40.325 106.35 47.0443359375 106.35 54.9
M 655.8 85
Q 656.7638671875 84.1322265625 657.7 83.2 669.3 71.4 669.45 54.9 669.3 38.2 657.7 26.6 645.6 14.8 628.95 14.8
L 147.5 14.8
M 126.5 72.375
Q 126.5912109375 71.6796875 126.725 71 127.8548828125 65.3076171875 132.35 60.85 134.0611328125 59.1388671875 135.95 57.925 140.6294921875 54.9 146.4 54.9
L 186.8 54.9
M 170.175 87.425
Q 163.309375 92.430078125 154.95 94.125 151.3646484375 94.842578125 147.5 94.95"/>
</defs>

<g transform="matrix( 1, 0, 0, 1, -105.35,-13.8) ">
<use xlink:href="#Layer0_0_FILL"/>

<use xlink:href="#Layer0_0_1_STROKES"/>
</g>
</svg>

<svg xmlns="http://www.w3.org/2000/svg" xmlns:xlink="http://www.w3.org/1999/xlink" preserveAspectRatio="none" width="566" height="83" viewBox="0 0 566 83"><defs><g id="a"><path fill="#FFF" d="M152.3 94.95q-2.557.375-5.25.45H628.4q12.1 0 21.5-6-9.246 5.55-20.95 5.55H152.3m26.55-16.35q-.843 1.21-1.8 2.35 3.186-3.6 5.3-7.65-1.505 2.75-3.5 5.3m7.5-23.85h.45q-.053-16.602-11.8-28.15-8.79-8.714-20.05-11-.987-.2-2-.35h-5.9q15.9.3 27.5 11.8 11.587 11.39 11.8 27.7M649.9 89.4q3.105-1.888 5.9-4.4.707-.66 1.4-1.35 11.6-11.8 11.75-28.3-.15-16.7-11.75-28.3-12.1-11.8-28.8-11.8H152.95q1.013.15 2 .35 11.26 2.286 20.05 11 11.747 11.548 11.8 28.15v.15q-.017 10.078-4.45 18.4-2.114 4.05-5.3 7.65-.97 1.155-2.05 2.25l-.45.45q-2.1 2.07-4.4 3.75-7.864 6.087-17.85 7.55h476.65q11.704 0 20.95-5.55z"/><path fill="#C4D3D4" d="M182.35 73.3q4.433-8.322 4.45-18.4h-40.4q-5.77 0-10.45 3-1.89 1.24-3.6 2.95-4.495 4.458-5.65 10.15-.11.68-.2 1.35-.144 1.19-.15 2.4v.2q.018 4.09 1.5 7.65 1.536 3.537 4.5 6.55Q138 94.8 146.4 94.8h1.1q16.2-.45 27.5-11.75 2.13-2.13 3.85-4.45 1.995-2.55 3.5-5.3m4.45-18.55H146.4q-8.1 0-14.05 5.95-5.102 5.06-5.85 11.65.09-.67.2-1.35 1.155-5.692 5.65-10.15 1.71-1.71 3.6-2.95 4.68-3 10.45-3h40.4v-.15z"/></g><path id="b" stroke="#000" stroke-linejoin="round" stroke-linecap="round" fill="none" d="M649.925 89.4q3.08-1.888 5.875-4.4M152.95 15.25q1.013.15 2 .35 11.26 2.286 20.05 11 11.747 11.548 11.8 28.15v.15q-.017 10.078-4.45 18.4-2.114 4.05-5.3 7.675-.97 1.13-2.05 2.225l-.45.45q-2.1 2.07-4.375 3.775M152.3 94.95h476.65q11.704 0 20.975-5.55M152.3 94.95h-5.9q-8.4 0-14.05-5.65-3.022-3.072-4.5-6.7-1.482-3.56-1.5-7.65v-.2q.006-1.21.15-2.375m26.45-57.125q-2.656-.397-5.45-.45h-1.1q-16.65 0-28.3 11.8-1.19 1.174-2.25 2.4-4.532 5.192-6.9 11.325-2.6 6.72-2.6 14.575M655.8 85q.964-.868 1.9-1.8 11.6-11.8 11.75-28.3-.15-16.7-11.75-28.3-12.1-11.8-28.75-11.8H147.5m-21 57.575q.09-.695.225-1.375 1.13-5.692 5.625-10.15 1.71-1.71 3.6-2.925 4.68-3.025 10.45-3.025h40.4m-16.625 32.525q-6.866 5.005-15.225 6.7-3.585.718-7.45.825"/></defs><g transform="translate(-105.35 -13.8)"><use xlink:href="#a"/><use xlink:href="#b"/></g></svg>
